X: 17602
T: Hogmanay Or Adieu To The Auld Year
R: strathspey
M: 4/4
K: Amajor
|:E|C>EA>E C/C/C C2|C>E A<c B>B, B,<E|C>EA>E C/C/C C2|e/d/c/B/ A>E C2 C:|
e|f/e/d/c/ a<c e<c e>a|e>ca>>ga/4 b>B B<a|f/e/d/c/ a>c e>c f<a|g<b a>f c2 c<a|
f/e/d/c/ a<c e<c e>a|e>ca>>ga/4 b>BBc/d/|e<cB<G A>c G<B|F>A E<A C2 C||

